assets/svg/icon-large-mobile-globe-blue.svg

<?xml version="1.0" encoding="UTF-8" standalone="no"?>
<svg width="60px" height="64px" viewBox="0 0 60 64" version="1.1" xmlns="http://www.w3.org/2000/svg" xmlns:xlink="http://www.w3.org/1999/xlink">
    <!-- Generator: Sketch 3.8.3 (29802) - http://www.bohemiancoding.com/sketch -->
    <title>blue/icon-large-mobile-globe-blue</title>
    <desc>Created with Sketch.</desc>
    <defs></defs>
    <g id="blue,-base" stroke="none" stroke-width="1" fill="none" fill-rule="evenodd">
        <g id="icons,-large-detailed-(blue)" transform="translate(-805.000000, -581.000000)" fill="#1055FF">
            <g id="blue/icon-large-mobile-globe-blue" transform="translate(805.000000, 581.000000)">
                <g id="Rectangle-25">
                    <g id="Page-1">
                        <g id="Stratum-2016_02_16-kg-v1.2">
                            <g id="dashboard">
                                <g id="browser">
                                    <path d="M38.4,9.6 L38.4,1.61404026 C38.4,0.71875 37.6831581,0 36.7988886,0 L1.60111141,0 C0.715950752,0 0,0.722630432 0,1.61404026 L0,62.3859597 C0,63.2812499 0.716841997,64 1.60111141,64 L36.7988886,64 C37.6840493,64 38.4,63.2773696 38.4,62.3859597 L38.4,48 L36.907412,48 L36.817737,52.0073776 C36.8079411,52.4451309 36.4516133,52.8 35.9986622,52.8 L2.40133781,52.8 C1.95877117,52.8 1.6,52.4412334 1.6,52.0069181 L1.6,5.59308192 C1.6,5.15507488 1.94838677,4.8 2.40133781,4.8 L35.9986622,4.8 C36.4412288,4.8 36.8,5.14520416 36.8,5.5926224 L36.8,9.6 L38.4,9.6 L38.4,9.6 Z M19.2,60.8 C20.5254834,60.8 21.6,59.7254834 21.6,58.4 C21.6,57.0745166 20.5254834,56 19.2,56 C17.8745166,56 16.8,57.0745166 16.8,58.4 C16.8,59.7254834 17.8745166,60.8 19.2,60.8 L19.2,60.8 Z M11.2,1.6 L27.2,1.6 L27.2,3.2 L11.2,3.2 L11.2,1.6 L11.2,1.6 Z M57.0930042,36.7670782 C58.4757202,34.3967078 59.2,31.6971194 59.2,28.8 C59.2,25.9028806 58.4098765,23.2032922 57.0930042,20.8329218 C57.0930042,20.7670782 57.0271605,20.7670782 57.0271605,20.7670782 C54.2617283,16.0263374 49.1259259,12.8 43.2,12.8 C37.3399178,12.8 32.1382717,16.0263374 29.3728395,20.7670782 L29.3069958,20.8329218 C27.9242798,23.2032922 27.2,25.9028806 27.2,28.8 C27.2,31.6971194 27.9901235,34.3967078 29.3069958,36.7670782 C29.3069958,36.8329218 29.3728395,36.8329218 29.3728395,36.8329218 C32.1382717,41.5736626 37.2740741,44.8 43.2,44.8 C49.0600822,44.8 54.2617283,41.5736626 57.0271605,36.8329218 C57.0271605,36.8329218 57.0271605,36.7670782 57.0930042,36.7670782 L57.0930042,36.7670782 Z M28.3193416,29.326749 L33.7843621,29.326749 C33.8502058,31.6971194 34.1794238,33.9358024 34.7720165,35.9769547 L30.162963,35.9769547 C29.0436214,34.0016461 28.3851851,31.762963 28.3193416,29.326749 L28.3193416,29.326749 Z M30.162963,21.6230453 L34.7720165,21.6230453 C34.1794238,23.6641976 33.8502058,25.9028806 33.7843621,28.273251 L28.3193416,28.273251 C28.3851851,25.837037 29.0436214,23.5983539 30.162963,21.6230453 L30.162963,21.6230453 Z M58.0806584,28.273251 L52.6156379,28.273251 C52.5497942,25.9028806 52.2205762,23.6641976 51.6279835,21.6230453 L56.237037,21.6230453 C57.3563786,23.5983539 58.0148149,25.837037 58.0806584,28.273251 L58.0806584,28.273251 Z M51.4962963,28.273251 L43.726749,28.273251 L43.726749,21.6230453 L50.4427984,21.6230453 C51.1012346,23.5983539 51.4304526,25.9028806 51.4962963,28.273251 L51.4962963,28.273251 Z M43.726749,20.5037037 L43.726749,13.9851851 C45.7020576,14.2485597 47.545679,15.6971194 48.928395,18.199177 C49.3234568,18.9234568 49.7185186,19.7135803 50.0477366,20.5037037 L43.726749,20.5037037 L43.726749,20.5037037 Z M42.673251,13.9851851 L42.673251,20.5037037 L36.3522634,20.5037037 C36.6814814,19.6477366 37.0106995,18.9234568 37.471605,18.199177 C38.854321,15.6312757 40.6979424,14.182716 42.673251,13.9851851 L42.673251,13.9851851 Z M42.673251,21.6230453 L42.673251,28.273251 L34.9037037,28.273251 C34.9695474,25.9028806 35.2987654,23.6641976 35.9572016,21.6230453 L42.673251,21.6230453 L42.673251,21.6230453 Z M34.9037037,29.326749 L42.673251,29.326749 L42.673251,35.9769547 L35.9572016,35.9769547 C35.2987654,34.0016461 34.9695474,31.6971194 34.9037037,29.326749 L34.9037037,29.326749 Z M42.673251,37.0962963 L42.673251,43.6148149 C40.6979424,43.3514403 38.854321,41.9028806 37.471605,39.400823 C37.0765432,38.6765432 36.6814814,37.8864197 36.3522634,37.0962963 L42.673251,37.0962963 L42.673251,37.0962963 L42.673251,37.0962963 Z M43.726749,43.6148149 L43.726749,37.0962963 L50.0477366,37.0962963 C49.7185186,37.9522634 49.3893005,38.6765432 48.928395,39.400823 C47.545679,41.9687243 45.7020576,43.417284 43.726749,43.6148149 L43.726749,43.6148149 Z M43.726749,35.9769547 L43.726749,29.326749 L51.4962963,29.326749 C51.4304526,31.6971194 51.1012346,33.9358024 50.4427984,35.9769547 L43.726749,35.9769547 L43.726749,35.9769547 Z M52.6156379,29.326749 L58.0806584,29.326749 C58.0148149,31.762963 57.3563786,34.0016461 56.237037,35.9769547 L51.6279835,35.9769547 C52.2205762,33.9358024 52.5497942,31.6971194 52.6156379,29.326749 L52.6156379,29.326749 Z M55.5786008,20.5037037 L51.2987654,20.5037037 C50.9037037,19.4502058 50.5086419,18.528395 49.981893,17.6065843 C49.2576131,16.3555555 48.4674898,15.3020576 47.545679,14.5777778 C50.8378602,15.5654322 53.6691358,17.672428 55.5786008,20.5037037 L55.5786008,20.5037037 Z M38.9201646,14.5119341 C37.9983539,15.3020576 37.2082304,16.289712 36.4839506,17.5407408 C35.9572016,18.3967078 35.5621398,19.3843621 35.1670782,20.4378602 L30.8872427,20.4378602 C32.7308642,17.672428 35.5621398,15.5654322 38.9201646,14.5119341 L38.9201646,14.5119341 Z M30.8213992,37.0962963 L35.1012346,37.0962963 C35.4962963,38.1497942 35.8913581,39.071605 36.418107,39.9934157 C37.1423869,41.2444445 37.9325102,42.2979424 38.854321,43.0222222 C35.5621398,42.0345678 32.7308642,39.927572 30.8213992,37.0962963 L30.8213992,37.0962963 Z M47.4798354,43.0880659 C48.4016461,42.2979424 49.1917696,41.310288 49.9160494,40.0592592 C50.4427984,39.2032922 50.8378602,38.2156379 51.2329218,37.1621398 L55.5127573,37.1621398 C53.6691358,39.927572 50.8378602,42.0345678 47.4798354,43.0880659 L47.4798354,43.0880659 Z" id="Rectangle-25"></path>
                                </g>
                            </g>
                        </g>
                    </g>
                </g>
            </g>
        </g>
    </g>
</svg>

<svg width="60" height="64" viewBox="0 0 60 64" xmlns="http://www.w3.org/2000/svg"><title>blue/icon-large-mobile-globe-blue</title><path d="M38.4 9.6V1.614C38.4.719 37.683 0 36.799 0H1.6C.716 0 0 .723 0 1.614v60.772C0 63.281.717 64 1.601 64H36.8c.885 0 1.601-.723 1.601-1.614V48h-1.493l-.09 4.007A.812.812 0 0 1 36 52.8H2.4a.8.8 0 0 1-.801-.793V5.593a.79.79 0 0 1 .801-.793H36a.79.79 0 0 1 .801.793V9.6h1.6zM19.2 60.8a2.4 2.4 0 1 0 0-4.8 2.4 2.4 0 0 0 0 4.8zm-8-59.2h16v1.6h-16V1.6zm45.893 35.167c1.383-2.37 2.107-5.07 2.107-7.967 0-2.897-.79-5.597-2.107-7.967 0-.066-.066-.066-.066-.066-2.765-4.74-7.901-7.967-13.827-7.967-5.86 0-11.062 3.226-13.827 7.967l-.066.066c-1.383 2.37-2.107 5.07-2.107 7.967 0 2.897.79 5.597 2.107 7.967 0 .066.066.066.066.066 2.765 4.74 7.901 7.967 13.827 7.967 5.86 0 11.062-3.226 13.827-7.967 0 0 0-.066.066-.066zm-28.774-7.44h5.465c.066 2.37.395 4.609.988 6.65h-4.609a14.155 14.155 0 0 1-1.844-6.65zm1.844-7.704h4.609c-.593 2.041-.922 4.28-.988 6.65H28.32a14.155 14.155 0 0 1 1.844-6.65zm27.918 6.65h-5.465c-.066-2.37-.395-4.609-.988-6.65h4.609a14.155 14.155 0 0 1 1.844 6.65zm-6.585 0h-7.77v-6.65h6.717c.658 1.975.987 4.28 1.053 6.65zm-7.77-7.77v-6.518c1.976.264 3.82 1.712 5.202 4.214.395.724.79 1.515 1.12 2.305h-6.321zm-1.053-6.518v6.519h-6.32c.328-.856.658-1.58 1.119-2.305 1.382-2.568 3.226-4.016 5.201-4.214zm0 7.638v6.65h-7.77c.067-2.37.396-4.609 1.054-6.65h6.716zm-7.77 7.704h7.77v6.65h-6.716c-.658-1.975-.987-4.28-1.053-6.65zm7.77 7.77v6.518c-1.975-.264-3.819-1.712-5.201-4.214a24.879 24.879 0 0 1-1.12-2.305h6.321zm1.054 6.518v-6.519h6.32c-.328.856-.658 1.58-1.119 2.305-1.382 2.568-3.226 4.016-5.201 4.214zm0-7.638v-6.65h7.77c-.067 2.37-.396 4.609-1.054 6.65h-6.716zm8.889-6.65h5.465a14.155 14.155 0 0 1-1.844 6.65h-4.609c.593-2.041.922-4.28.988-6.65zm2.963-8.823h-4.28c-.395-1.054-.79-1.976-1.317-2.897-.724-1.251-1.515-2.305-2.436-3.03a14.845 14.845 0 0 1 8.033 5.927zM38.92 14.512c-.922.79-1.712 1.778-2.436 3.029-.527.856-.922 1.843-1.317 2.897h-4.28c1.844-2.766 4.675-4.873 8.033-5.926zm-8.099 22.584h4.28c.395 1.054.79 1.976 1.317 2.897.724 1.251 1.515 2.305 2.436 3.03a14.845 14.845 0 0 1-8.033-5.927zm16.659 5.992c.922-.79 1.712-1.778 2.436-3.029.527-.856.922-1.843 1.317-2.897h4.28c-1.844 2.766-4.675 4.873-8.033 5.926z" fill="#1055FF" fill-rule="evenodd"/></svg>
